Flat-Remix-Dark/apps/scalable/vocal.svg

<svg xmlns="http://www.w3.org/2000/svg" xmlns:xlink="http://www.w3.org/1999/xlink" width="384pt" height="384pt" version="1.1" viewBox="0 0 384 384"> <defs> <filter id="alpha" width="100%" height="100%" x="0%" y="0%" filterUnits="objectBoundingBox"> <feColorMatrix in="SourceGraphic" type="matrix" values="0 0 0 0 1 0 0 0 0 1 0 0 0 0 1 0 0 0 1 0"/> </filter> <mask id="mask0"> <g filter="url(#alpha)"> <rect style="fill:rgb(0%,0%,0%);fill-opacity:0.701961" width="384" height="384" x="0" y="0"/> </g> </mask> <radialGradient id="radial0" cx="15.5" cy="11.491" r="6.5" fx="15.5" fy="11.491" gradientTransform="matrix(12,0,0,13.846616,0,-21.110557)" gradientUnits="userSpaceOnUse"> <stop style="stop-color:rgb(0%,0%,0%)" offset="0"/> <stop style="stop-color:rgb(0%,0%,0%);stop-opacity:0" offset="1"/> </radialGradient> <clipPath id="clip1"> <rect width="384" height="384" x="0" y="0"/> </clipPath> <g id="surface5" clip-path="url(#clip1)"> <path d="M 162 48 C 158.6875 48 156 50.691406 156 54.007812 C 156 57.324219 158.6875 60.015625 162 60.015625 C 165.3125 60.015625 168 57.324219 168 54.007812 C 168 50.691406 165.3125 48 162 48 Z M 186 48 C 182.6875 48 180 50.691406 180 54.007812 C 180 57.324219 182.6875 60.015625 186 60.015625 C 189.3125 60.015625 192 57.324219 192 54.007812 C 192 50.691406 189.3125 48 186 48 Z M 210 48 C 206.6875 48 204 50.691406 204 54.007812 C 204 57.324219 206.6875 60.015625 210 60.015625 C 213.3125 60.015625 216 57.324219 216 54.007812 C 216 50.691406 213.3125 48 210 48 Z M 234 48 C 230.6875 48 228 50.691406 228 54.007812 C 228 57.324219 230.6875 60.015625 234 60.015625 C 237.3125 60.015625 240 57.324219 240 54.007812 C 240 50.691406 237.3125 48 234 48 Z M 143.160156 50.910156 C 139.859375 53.160156 136.726562 55.628906 133.800781 58.300781 C 134.921875 59.398438 136.429688 60.015625 138 60.015625 C 141.3125 60.015625 144 57.324219 144 54.007812 C 144.003906 52.917969 143.714844 51.847656 143.160156 50.910156 Z M 138 72.027344 C 134.6875 72.027344 132 74.71875 132 78.035156 C 132 81.355469 134.6875 84.042969 138 84.042969 C 141.3125 84.042969 144 81.355469 144 78.035156 C 144 74.71875 141.3125 72.027344 138 72.027344 Z M 162 72.027344 C 158.6875 72.027344 156 74.71875 156 78.035156 C 156 81.355469 158.6875 84.042969 162 84.042969 C 165.3125 84.042969 168 81.355469 168 78.035156 C 168 74.71875 165.3125 72.027344 162 72.027344 Z M 186 72.027344 C 182.6875 72.027344 180 74.71875 180 78.035156 C 180 81.355469 182.6875 84.042969 186 84.042969 C 189.3125 84.042969 192 81.355469 192 78.035156 C 192 74.71875 189.3125 72.027344 186 72.027344 Z M 210 72.027344 C 206.6875 72.027344 204 74.71875 204 78.035156 C 204 81.355469 206.6875 84.042969 210 84.042969 C 213.3125 84.042969 216 81.355469 216 78.035156 C 216 74.71875 213.3125 72.027344 210 72.027344 Z M 234 72.027344 C 230.6875 72.027344 228 74.71875 228 78.035156 C 228 81.355469 230.6875 84.042969 234 84.042969 C 237.3125 84.042969 240 81.355469 240 78.035156 C 240 74.71875 237.3125 72.027344 234 72.027344 Z M 258 72.027344 C 254.6875 72.027344 252 74.71875 252 78.035156 C 252 81.355469 254.6875 84.042969 258 84.042969 C 261.3125 84.042969 264 81.355469 264 78.035156 C 264 74.71875 261.3125 72.027344 258 72.027344 Z M 119.507812 75.644531 C 117.863281 78.328125 116.347656 81.074219 115.03125 83.949219 C 117.902344 83.449219 119.996094 80.953125 120 78.035156 C 120 77.214844 119.835938 76.398438 119.507812 75.644531 Z M 114 96.058594 C 112.707031 96.058594 111.449219 96.480469 110.414062 97.253906 C 109.761719 99.847656 109.25 102.476562 108.867188 105.164062 C 109.953125 106.964844 111.898438 108.070312 114 108.070312 C 117.3125 108.070312 120 105.382812 120 102.066406 C 120 98.746094 117.3125 96.058594 114 96.058594 Z M 138 96.058594 C 134.6875 96.058594 132 98.746094 132 102.066406 C 132 105.382812 134.6875 108.070312 138 108.070312 C 141.3125 108.070312 144 105.382812 144 102.066406 C 144 98.746094 141.3125 96.058594 138 96.058594 Z M 162 96.058594 C 158.6875 96.058594 156 98.746094 156 102.066406 C 156 105.382812 158.6875 108.070312 162 108.070312 C 165.3125 108.070312 168 105.382812 168 102.066406 C 168 98.746094 165.3125 96.058594 162 96.058594 Z M 186 96.058594 C 182.6875 96.058594 180 98.746094 180 102.066406 C 180 105.382812 182.6875 108.070312 186 108.070312 C 189.3125 108.070312 192 105.382812 192 102.066406 C 192 98.746094 189.3125 96.058594 186 96.058594 Z M 210 96.058594 C 206.6875 96.058594 204 98.746094 204 102.066406 C 204 105.382812 206.6875 108.070312 210 108.070312 C 213.3125 108.070312 216 105.382812 216 102.066406 C 216 98.746094 213.3125 96.058594 210 96.058594 Z M 234 96.058594 C 230.6875 96.058594 228 98.746094 228 102.066406 C 228 105.382812 230.6875 108.070312 234 108.070312 C 237.3125 108.070312 240 105.382812 240 102.066406 C 240 98.746094 237.3125 96.058594 234 96.058594 Z M 258 96.058594 C 254.6875 96.058594 252 98.746094 252 102.066406 C 252 105.382812 254.6875 108.070312 258 108.070312 C 261.3125 108.070312 264 105.382812 264 102.066406 C 264 98.746094 261.3125 96.058594 258 96.058594 Z M 114 120.085938 C 110.6875 120.085938 108 122.777344 108 126.09375 C 108 129.410156 110.6875 132.101562 114 132.101562 C 117.3125 132.101562 120 129.410156 120 126.09375 C 120 122.777344 117.3125 120.085938 114 120.085938 Z M 138 120.085938 C 134.6875 120.085938 132 122.777344 132 126.09375 C 132 129.410156 134.6875 132.101562 138 132.101562 C 141.3125 132.101562 144 129.410156 144 126.09375 C 144 122.777344 141.3125 120.085938 138 120.085938 Z M 162 120.085938 C 158.6875 120.085938 156 122.777344 156 126.09375 C 156 129.410156 158.6875 132.101562 162 132.101562 C 165.3125 132.101562 168 129.410156 168 126.09375 C 168 122.777344 165.3125 120.085938 162 120.085938 Z M 186 120.085938 C 182.6875 120.085938 180 122.777344 180 126.09375 C 180 129.410156 182.6875 132.101562 186 132.101562 C 189.3125 132.101562 192 129.410156 192 126.09375 C 192 122.777344 189.3125 120.085938 186 120.085938 Z M 210 120.085938 C 206.6875 120.085938 204 122.777344 204 126.09375 C 204 129.410156 206.6875 132.101562 210 132.101562 C 213.3125 132.101562 216 129.410156 216 126.09375 C 216 122.777344 213.3125 120.085938 210 120.085938 Z M 234 120.085938 C 230.6875 120.085938 228 122.777344 228 126.09375 C 228 129.410156 230.6875 132.101562 234 132.101562 C 237.3125 132.101562 240 129.410156 240 126.09375 C 240 122.777344 237.3125 120.085938 234 120.085938 Z M 258 120.085938 C 254.6875 120.085938 252 122.777344 252 126.09375 C 252 129.410156 254.6875 132.101562 258 132.101562 C 261.3125 132.101562 264 129.410156 264 126.09375 C 264 122.777344 261.3125 120.085938 258 120.085938 Z M 114 144.117188 C 110.992188 144.125 108.457031 146.367188 108.070312 149.355469 C 108.082031 150.097656 108.15625 150.832031 108.1875 151.578125 C 108.851562 154.25 111.25 156.125 114 156.128906 C 117.3125 156.128906 120 153.441406 120 150.121094 C 120 146.804688 117.3125 144.117188 114 144.117188 Z M 138 144.117188 C 134.6875 144.117188 132 146.804688 132 150.121094 C 132 153.441406 134.6875 156.128906 138 156.128906 C 141.3125 156.128906 144 153.441406 144 150.121094 C 144 146.804688 141.3125 144.117188 138 144.117188 Z M 162 144.117188 C 158.6875 144.117188 156 146.804688 156 150.121094 C 156 153.441406 158.6875 156.128906 162 156.128906 C 165.3125 156.128906 168 153.441406 168 150.121094 C 168 146.804688 165.3125 144.117188 162 144.117188 Z M 186 144.117188 C 182.6875 144.117188 180 146.804688 180 150.121094 C 180 153.441406 182.6875 156.128906 186 156.128906 C 189.3125 156.128906 192 153.441406 192 150.121094 C 192 146.804688 189.3125 144.117188 186 144.117188 Z M 210 144.117188 C 206.6875 144.117188 204 146.804688 204 150.121094 C 204 153.441406 206.6875 156.128906 210 156.128906 C 213.3125 156.128906 216 153.441406 216 150.121094 C 216 146.804688 213.3125 144.117188 210 144.117188 Z M 234 144.117188 C 230.6875 144.117188 228 146.804688 228 150.121094 C 228 153.441406 230.6875 156.128906 234 156.128906 C 237.3125 156.128906 240 153.441406 240 150.121094 C 240 146.804688 237.3125 144.117188 234 144.117188 Z M 258 144.117188 C 254.6875 144.117188 252 146.804688 252 150.121094 C 252 153.441406 254.6875 156.128906 258 156.128906 C 261.3125 156.128906 264 153.441406 264 150.121094 C 264 146.804688 261.3125 144.117188 258 144.117188 Z M 114 168.144531 C 112.929688 168.140625 111.878906 168.421875 110.953125 168.960938 C 112.023438 172.78125 113.316406 176.519531 114.9375 180.085938 C 117.851562 179.625 120 177.109375 120 174.152344 C 120 170.832031 117.3125 168.144531 114 168.144531 Z M 138 168.144531 C 134.6875 168.144531 132 170.832031 132 174.152344 C 132 177.46875 134.6875 180.160156 138 180.160156 C 141.3125 180.160156 144 177.46875 144 174.152344 C 144 170.832031 141.3125 168.144531 138 168.144531 Z M 162 168.144531 C 158.6875 168.144531 156 170.832031 156 174.152344 C 156 177.46875 158.6875 180.160156 162 180.160156 C 165.3125 180.160156 168 177.46875 168 174.152344 C 168 170.832031 165.3125 168.144531 162 168.144531 Z M 186 168.144531 C 182.6875 168.144531 180 170.832031 180 174.152344 C 180 177.46875 182.6875 180.160156 186 180.160156 C 189.3125 180.160156 192 177.46875 192 174.152344 C 192 170.832031 189.3125 168.144531 186 168.144531 Z M 210 168.144531 C 206.6875 168.144531 204 170.832031 204 174.152344 C 204 177.46875 206.6875 180.160156 210 180.160156 C 213.3125 180.160156 216 177.46875 216 174.152344 C 216 170.832031 213.3125 168.144531 210 168.144531 Z M 234 168.144531 C 230.6875 168.144531 228 170.832031 228 174.152344 C 228 177.46875 230.6875 180.160156 234 180.160156 C 237.3125 180.160156 240 177.46875 240 174.152344 C 240 170.832031 237.3125 168.144531 234 168.144531 Z M 258 168.144531 C 254.6875 168.144531 252 170.832031 252 174.152344 C 252 177.46875 254.6875 180.160156 258 180.160156 C 261.3125 180.160156 264 177.46875 264 174.152344 C 264 170.832031 261.3125 168.144531 258 168.144531 Z M 138 192.171875 C 134.6875 192.171875 132 194.863281 132 198.179688 C 132 201.496094 134.6875 204.1875 138 204.1875 C 141.3125 204.1875 144 201.496094 144 198.179688 C 144 194.863281 141.3125 192.171875 138 192.171875 Z M 162 192.171875 C 158.6875 192.171875 156 194.863281 156 198.179688 C 156 201.496094 158.6875 204.1875 162 204.1875 C 165.3125 204.1875 168 201.496094 168 198.179688 C 168 194.863281 165.3125 192.171875 162 192.171875 Z M 186 192.171875 C 182.6875 192.171875 180 194.863281 180 198.179688 C 180 201.496094 182.6875 204.1875 186 204.1875 C 189.3125 204.1875 192 201.496094 192 198.179688 C 192 194.863281 189.3125 192.171875 186 192.171875 Z M 210 192.171875 C 206.6875 192.171875 204 194.863281 204 198.179688 C 204 201.496094 206.6875 204.1875 210 204.1875 C 213.3125 204.1875 216 201.496094 216 198.179688 C 216 194.863281 213.3125 192.171875 210 192.171875 Z M 234 192.171875 C 230.6875 192.171875 228 194.863281 228 198.179688 C 228 201.496094 230.6875 204.1875 234 204.1875 C 237.3125 204.1875 240 201.496094 240 198.179688 C 240 194.863281 237.3125 192.171875 234 192.171875 Z M 258 192.171875 C 254.6875 192.171875 252 194.863281 252 198.179688 C 252 199.765625 252.625 201.285156 253.738281 202.410156 C 256.523438 199.527344 259.152344 196.523438 261.46875 193.277344 C 260.453125 192.558594 259.242188 192.171875 258 192.171875 Z M 162 216.203125 C 159.324219 216.207031 156.972656 217.984375 156.238281 220.5625 C 159.839844 222.183594 163.558594 223.625 167.4375 224.742188 C 167.804688 223.949219 168 223.085938 168 222.210938 C 168 218.890625 165.3125 216.203125 162 216.203125 Z M 186 216.203125 C 182.6875 216.203125 180 218.890625 180 222.210938 C 179.992188 224.6875 181.507812 226.917969 183.816406 227.820312 C 185.0625 227.929688 186.335938 227.941406 187.597656 228 C 190.199219 227.28125 192 224.910156 192 222.210938 C 192 218.890625 189.3125 216.203125 186 216.203125 Z M 210 216.203125 C 206.6875 216.203125 204 218.890625 204 222.210938 C 204 224.074219 204.863281 225.828125 206.339844 226.964844 C 209.375 226.472656 212.363281 225.835938 215.269531 225.042969 C 215.742188 224.175781 215.992188 223.199219 216 222.210938 C 216 218.890625 213.3125 216.203125 210 216.203125 Z M 234 216.203125 C 231.40625 216.203125 229.109375 217.867188 228.300781 220.335938 C 230.867188 219.15625 233.351562 217.859375 235.753906 216.453125 C 235.183594 216.285156 234.59375 216.199219 234 216.203125 Z M 234 216.203125" style="fill:url(#radial0)"/> </g> </defs> <path d="m 192.0959,30.750002 h 0.0123 c 25.60329,0 46.35722,26.2995 46.35722,58.73876 v 99.490378 c 0,32.43924 -20.75393,58.73875 -46.35723,58.73875 h -0.0123 c -25.60329,0 -46.35723,-26.29951 -46.35723,-58.73875 V 89.488762 c 0,-32.43926 20.75394,-58.73876 46.35724,-58.73876 z m 0,0" style="fill-rule:evenodd;opacity:0.3"/> <g transform="matrix(1.5364383,0,0,1.5364383,-97.996355,463.73488)"> <g transform="translate(-3.2542351,-372.61017)"> <path d="m 192.0625,85.917969 h 0.008 c 16.66406,0 30.17188,17.117191 30.17188,38.230471 v 64.7539 c 0,21.11328 -13.50782,38.23047 -30.17188,38.23047 h -0.008 c -16.66406,0 -30.17188,-17.11719 -30.17188,-38.23047 v -64.7539 c 0,-21.11328 13.50782,-38.230471 30.17188,-38.230471 z m 0,0" style="fill:rgb(100.000%,100.000%,100.000%);fill-rule:evenodd"/> <path style="fill:rgb(54.901%,25.882%,67.058%);fill-rule:evenodd" d="m 191.17188,-235.05273 -25.22461,0.10937 c 2.2307,52.22415 36.65352,81.48858 74.09375,86.59375 v 33.61133 c -16.45671,2.76921 -32.22191,11.13584 -44.2129,24.992186 l 112.2129,0.375 c -11.73091,-14.275436 -27.40037,-22.706236 -43.88086,-25.423826 v -33.60938 c 36.51829,-5.15603 69.97778,-33.59287 73.21484,-86.49804 l -25.62109,-0.15039 c -4.3125,81.47396 -115.78516,82.0625 -120.58203,0 z" transform="matrix(0.75,0,0,0.75,3.2542351,372.61017)"/> </g> <use width="100%" height="100%" x="0" y="0" mask="url(#mask0)" transform="matrix(0.38591916,0,0,0.7833116,117.05602,-324.09366)" xlink:href="#surface5" style="fill:rgb(100.000%,100.000%,100.000%)"/> </g> <path d="M 125.01172 257.33398 L 124.30664 257.33789 C 127.73397 337.57708 180.62187 382.53904 238.14648 390.38281 L 238.14648 380.38281 C 183.0574 372.87114 132.22793 331.31213 125.01172 257.33398 z M 386.82227 257.39453 C 378.40553 332.27141 328.96497 372.70818 275.20312 380.29883 L 275.20312 390.29883 C 331.31122 382.37689 382.71981 338.68591 387.69336 257.40039 L 386.82227 257.39453 z M 179.92773 470.45703 C 176.54426 473.54496 173.29803 476.86327 170.2168 480.42383 L 342.625 481 C 339.67938 477.41545 336.56821 474.07449 333.32031 470.96875 L 179.92773 470.45703 z" transform="scale(0.75)" style="fill-rule:evenodd;opacity:0.3"/> </svg>

<svg width="512" height="512" version="1.1" viewBox="0 0 384 384" xmlns="http://www.w3.org/2000/svg" xmlns:xlink="http://www.w3.org/1999/xlink"><defs><filter id="alpha" x="0%" y="0%" width="100%" height="100%"><feColorMatrix in="SourceGraphic" values="0 0 0 0 1 0 0 0 0 1 0 0 0 0 1 0 0 0 1 0"/></filter><mask id="c"><g filter="url(#alpha)"><rect width="384" height="384" fill-opacity=".70196"/></g></mask><radialGradient id="b" cx="15.5" cy="11.491" r="6.5" gradientTransform="matrix(12 0 0 13.847 0 -21.111)" gradientUnits="userSpaceOnUse"><stop offset="0"/><stop stop-opacity="0" offset="1"/></radialGradient><clipPath id="d"><rect width="384" height="384"/></clipPath><g id="a" clip-path="url(#d)"><path d="m162 48c-3.3125 0-6 2.6914-6 6.0078s2.6875 6.0078 6 6.0078 6-2.6914 6-6.0078-2.6875-6.0078-6-6.0078zm24 0c-3.3125 0-6 2.6914-6 6.0078s2.6875 6.0078 6 6.0078 6-2.6914 6-6.0078-2.6875-6.0078-6-6.0078zm24 0c-3.3125 0-6 2.6914-6 6.0078s2.6875 6.0078 6 6.0078 6-2.6914 6-6.0078-2.6875-6.0078-6-6.0078zm24 0c-3.3125 0-6 2.6914-6 6.0078s2.6875 6.0078 6 6.0078 6-2.6914 6-6.0078-2.6875-6.0078-6-6.0078zm-90.84 2.9102c-3.3008 2.25-6.4336 4.7188-9.3594 7.3906 1.1211 1.0977 2.6289 1.7148 4.1992 1.7148 3.3125 0 6-2.6914 6-6.0078 0.003906-1.0898-0.28516-2.1602-0.83984-3.0977zm-5.1602 21.117c-3.3125 0-6 2.6914-6 6.0078 0 3.3203 2.6875 6.0078 6 6.0078s6-2.6875 6-6.0078c0-3.3164-2.6875-6.0078-6-6.0078zm24 0c-3.3125 0-6 2.6914-6 6.0078 0 3.3203 2.6875 6.0078 6 6.0078s6-2.6875 6-6.0078c0-3.3164-2.6875-6.0078-6-6.0078zm24 0c-3.3125 0-6 2.6914-6 6.0078 0 3.3203 2.6875 6.0078 6 6.0078s6-2.6875 6-6.0078c0-3.3164-2.6875-6.0078-6-6.0078zm24 0c-3.3125 0-6 2.6914-6 6.0078 0 3.3203 2.6875 6.0078 6 6.0078s6-2.6875 6-6.0078c0-3.3164-2.6875-6.0078-6-6.0078zm24 0c-3.3125 0-6 2.6914-6 6.0078 0 3.3203 2.6875 6.0078 6 6.0078s6-2.6875 6-6.0078c0-3.3164-2.6875-6.0078-6-6.0078zm24 0c-3.3125 0-6 2.6914-6 6.0078 0 3.3203 2.6875 6.0078 6 6.0078s6-2.6875 6-6.0078c0-3.3164-2.6875-6.0078-6-6.0078zm-138.49 3.6172c-1.6445 2.6836-3.1602 5.4297-4.4766 8.3047 2.8711-0.5 4.9648-2.9961 4.9688-5.9141 0-0.82031-0.16406-1.6367-0.49219-2.3906zm-5.5078 20.414c-1.293 0-2.5508 0.42188-3.5859 1.1953-0.65234 2.5938-1.1641 5.2227-1.5469 7.9102 1.0859 1.8008 3.0312 2.9062 5.1328 2.9062 3.3125 0 6-2.6875 6-6.0039 0-3.3203-2.6875-6.0078-6-6.0078zm24 0c-3.3125 0-6 2.6875-6 6.0078 0 3.3164 2.6875 6.0039 6 6.0039s6-2.6875 6-6.0039c0-3.3203-2.6875-6.0078-6-6.0078zm24 0c-3.3125 0-6 2.6875-6 6.0078 0 3.3164 2.6875 6.0039 6 6.0039s6-2.6875 6-6.0039c0-3.3203-2.6875-6.0078-6-6.0078zm24 0c-3.3125 0-6 2.6875-6 6.0078 0 3.3164 2.6875 6.0039 6 6.0039s6-2.6875 6-6.0039c0-3.3203-2.6875-6.0078-6-6.0078zm24 0c-3.3125 0-6 2.6875-6 6.0078 0 3.3164 2.6875 6.0039 6 6.0039s6-2.6875 6-6.0039c0-3.3203-2.6875-6.0078-6-6.0078zm24 0c-3.3125 0-6 2.6875-6 6.0078 0 3.3164 2.6875 6.0039 6 6.0039s6-2.6875 6-6.0039c0-3.3203-2.6875-6.0078-6-6.0078zm24 0c-3.3125 0-6 2.6875-6 6.0078 0 3.3164 2.6875 6.0039 6 6.0039s6-2.6875 6-6.0039c0-3.3203-2.6875-6.0078-6-6.0078zm-144 24.027c-3.3125 0-6 2.6914-6 6.0078s2.6875 6.0078 6 6.0078 6-2.6914 6-6.0078-2.6875-6.0078-6-6.0078zm24 0c-3.3125 0-6 2.6914-6 6.0078s2.6875 6.0078 6 6.0078 6-2.6914 6-6.0078-2.6875-6.0078-6-6.0078zm24 0c-3.3125 0-6 2.6914-6 6.0078s2.6875 6.0078 6 6.0078 6-2.6914 6-6.0078-2.6875-6.0078-6-6.0078zm24 0c-3.3125 0-6 2.6914-6 6.0078s2.6875 6.0078 6 6.0078 6-2.6914 6-6.0078-2.6875-6.0078-6-6.0078zm24 0c-3.3125 0-6 2.6914-6 6.0078s2.6875 6.0078 6 6.0078 6-2.6914 6-6.0078-2.6875-6.0078-6-6.0078zm24 0c-3.3125 0-6 2.6914-6 6.0078s2.6875 6.0078 6 6.0078 6-2.6914 6-6.0078-2.6875-6.0078-6-6.0078zm24 0c-3.3125 0-6 2.6914-6 6.0078s2.6875 6.0078 6 6.0078 6-2.6914 6-6.0078-2.6875-6.0078-6-6.0078zm-144 24.031c-3.0078 0.007812-5.543 2.25-5.9297 5.2383 0.011719 0.74219 0.085938 1.4766 0.11719 2.2227 0.66406 2.6719 3.0625 4.5469 5.8125 4.5508 3.3125 0 6-2.6875 6-6.0078 0-3.3164-2.6875-6.0039-6-6.0039zm24 0c-3.3125 0-6 2.6875-6 6.0039 0 3.3203 2.6875 6.0078 6 6.0078s6-2.6875 6-6.0078c0-3.3164-2.6875-6.0039-6-6.0039zm24 0c-3.3125 0-6 2.6875-6 6.0039 0 3.3203 2.6875 6.0078 6 6.0078s6-2.6875 6-6.0078c0-3.3164-2.6875-6.0039-6-6.0039zm24 0c-3.3125 0-6 2.6875-6 6.0039 0 3.3203 2.6875 6.0078 6 6.0078s6-2.6875 6-6.0078c0-3.3164-2.6875-6.0039-6-6.0039zm24 0c-3.3125 0-6 2.6875-6 6.0039 0 3.3203 2.6875 6.0078 6 6.0078s6-2.6875 6-6.0078c0-3.3164-2.6875-6.0039-6-6.0039zm24 0c-3.3125 0-6 2.6875-6 6.0039 0 3.3203 2.6875 6.0078 6 6.0078s6-2.6875 6-6.0078c0-3.3164-2.6875-6.0039-6-6.0039zm24 0c-3.3125 0-6 2.6875-6 6.0039 0 3.3203 2.6875 6.0078 6 6.0078s6-2.6875 6-6.0078c0-3.3164-2.6875-6.0039-6-6.0039zm-144 24.027c-1.0703-0.003906-2.1211 0.27734-3.0469 0.81641 1.0703 3.8203 2.3633 7.5586 3.9844 11.125 2.9141-0.46094 5.0625-2.9766 5.0625-5.9336 0-3.3203-2.6875-6.0078-6-6.0078zm24 0c-3.3125 0-6 2.6875-6 6.0078 0 3.3164 2.6875 6.0078 6 6.0078s6-2.6914 6-6.0078c0-3.3203-2.6875-6.0078-6-6.0078zm24 0c-3.3125 0-6 2.6875-6 6.0078 0 3.3164 2.6875 6.0078 6 6.0078s6-2.6914 6-6.0078c0-3.3203-2.6875-6.0078-6-6.0078zm24 0c-3.3125 0-6 2.6875-6 6.0078 0 3.3164 2.6875 6.0078 6 6.0078s6-2.6914 6-6.0078c0-3.3203-2.6875-6.0078-6-6.0078zm24 0c-3.3125 0-6 2.6875-6 6.0078 0 3.3164 2.6875 6.0078 6 6.0078s6-2.6914 6-6.0078c0-3.3203-2.6875-6.0078-6-6.0078zm24 0c-3.3125 0-6 2.6875-6 6.0078 0 3.3164 2.6875 6.0078 6 6.0078s6-2.6914 6-6.0078c0-3.3203-2.6875-6.0078-6-6.0078zm24 0c-3.3125 0-6 2.6875-6 6.0078 0 3.3164 2.6875 6.0078 6 6.0078s6-2.6914 6-6.0078c0-3.3203-2.6875-6.0078-6-6.0078zm-120 24.027c-3.3125 0-6 2.6914-6 6.0078s2.6875 6.0078 6 6.0078 6-2.6914 6-6.0078-2.6875-6.0078-6-6.0078zm24 0c-3.3125 0-6 2.6914-6 6.0078s2.6875 6.0078 6 6.0078 6-2.6914 6-6.0078-2.6875-6.0078-6-6.0078zm24 0c-3.3125 0-6 2.6914-6 6.0078s2.6875 6.0078 6 6.0078 6-2.6914 6-6.0078-2.6875-6.0078-6-6.0078zm24 0c-3.3125 0-6 2.6914-6 6.0078s2.6875 6.0078 6 6.0078 6-2.6914 6-6.0078-2.6875-6.0078-6-6.0078zm24 0c-3.3125 0-6 2.6914-6 6.0078s2.6875 6.0078 6 6.0078 6-2.6914 6-6.0078-2.6875-6.0078-6-6.0078zm24 0c-3.3125 0-6 2.6914-6 6.0078 0 1.5859 0.625 3.1055 1.7383 4.2305 2.7852-2.8828 5.4141-5.8867 7.7305-9.1328-1.0156-0.71875-2.2266-1.1055-3.4688-1.1055zm-96 24.031c-2.6758 0.003906-5.0273 1.7812-5.7617 4.3594 3.6016 1.6211 7.3203 3.0625 11.199 4.1797 0.36719-0.79297 0.5625-1.6562 0.5625-2.5312 0-3.3203-2.6875-6.0078-6-6.0078zm24 0c-3.3125 0-6 2.6875-6 6.0078-0.007812 2.4766 1.5078 4.707 3.8164 5.6094 1.2461 0.10938 2.5195 0.12109 3.7812 0.17969 2.6016-0.71875 4.4023-3.0898 4.4023-5.7891 0-3.3203-2.6875-6.0078-6-6.0078zm24 0c-3.3125 0-6 2.6875-6 6.0078 0 1.8633 0.86328 3.6172 2.3398 4.7539 3.0352-0.49219 6.0234-1.1289 8.9297-1.9219 0.47266-0.86719 0.72266-1.8438 0.73047-2.832 0-3.3203-2.6875-6.0078-6-6.0078zm24 0c-2.5938 0-4.8906 1.6641-5.6992 4.1328 2.5664-1.1797 5.0508-2.4766 7.4531-3.8828-0.57031-0.16797-1.1602-0.25391-1.7539-0.25z" fill="url(#b)"/></g></defs><path d="m192.14 23.553h0.0123c25.603 0 46.357 26.3 46.357 58.739v99.49c0 32.439-20.754 58.739-46.357 58.739h-0.0123c-25.603 0-46.357-26.3-46.357-58.739v-99.49c0-32.439 20.754-58.739 46.357-58.739z" fill-rule="evenodd" opacity=".2" stroke="#000" stroke-width="7.5"/><path d="m192.1 30.75h0.0123c25.603 0 46.357 26.3 46.357 58.739v99.49c0 32.439-20.754 58.739-46.357 58.739h-0.0123c-25.603 0-46.357-26.3-46.357-58.739v-99.49c0-32.439 20.754-58.739 46.357-58.739z" fill-rule="evenodd" opacity=".3"/><g transform="matrix(1.5364 0 0 1.5364 -97.996 463.73)"><g transform="translate(-3.2542 -372.61)" fill-rule="evenodd"><path d="m192.06 85.918h8e-3c16.664 0 30.172 17.117 30.172 38.23v64.754c0 21.113-13.508 38.23-30.172 38.23h-8e-3c-16.664 0-30.172-17.117-30.172-38.23v-64.754c0-21.113 13.508-38.23 30.172-38.23z" fill="#fff"/><path transform="matrix(.75 0 0 .75 3.2542 372.61)" d="m191.17-235.05-25.225 0.10937c2.2307 52.224 36.654 81.489 74.094 86.594v33.611c-16.457 2.7692-32.222 11.136-44.213 24.992l112.21 0.375c-11.731-14.275-27.4-22.706-43.881-25.424v-33.609c36.518-5.156 69.978-33.593 73.215-86.498l-25.621-0.15039c-4.3125 81.474-115.79 82.062-120.58 0z" fill="#8b41aa"/></g><use transform="matrix(.38592 0 0 .78331 117.06 -324.09)" width="100%" height="100%" fill="rgb(100.000%,100.000%,100.000%)" mask="url(#c)" xlink:href="#a"/></g><path transform="scale(.75)" d="m125.01 257.33-0.70508 0.00391c3.4273 80.239 56.315 125.2 113.84 133.04v-10c-55.089-7.5117-105.92-49.071-113.13-123.05zm261.81 0.06055c-8.4167 74.877-57.857 115.31-111.62 122.9v10c56.108-7.9219 107.52-51.613 112.49-132.9l-0.87109-0.00586zm-206.89 213.06c-3.3835 3.0879-6.6297 6.4062-9.7109 9.9668l172.41 0.57617c-2.9456-3.5846-6.0568-6.9255-9.3047-10.031l-153.39-0.51172z" fill-rule="evenodd" opacity=".3"/></svg>
